<?xml version="1.0" encoding="UTF-8"?>
<map version="1.10" tiledversion="1.12.1" orientation="orthogonal" renderorder="right-down" width="30" height="50" tilewidth="32" tileheight="32" infinite="0" backgroundcolor="#949494" nextlayerid="4" nextobjectid="1">
 <tileset firstgid="1" name="path_tiles" tilewidth="32" tileheight="32" tilecount="8" columns="8">
  <image source="path_tiles.png" width="256" height="32"/>
 </tileset>
 <tileset firstgid="9" name="cloud_test_tiles" tilewidth="32" tileheight="32" tilecount="5" columns="5">
  <image source="Cloud_test_tiles.png" width="160" height="32"/>
 </tileset>
 <tileset firstgid="14" name="cloud_test" tilewidth="32" tileheight="32" tilecount="13" columns="13">
  <image source="cloud_test_tiles2.png" width="416" height="32"/>
  <tile id="0">
   <objectgroup draworder="index" id="3">
    <object id="3" x="0.181818" y="0" width="31.7273" height="32.0909"/>
   </objectgroup>
  </tile>
  <tile id="3">
   <objectgroup draworder="index" id="2">
    <object id="1" x="0" y="-0.0909091" width="32" height="32.0909"/>
   </objectgroup>
  </tile>
 </tileset>
 <tileset firstgid="27" name="cloud tiles" tilewidth="32" tileheight="32" tilecount="13" columns="13">
  <image source="cloud_test_tiles2.png" width="416" height="32"/>
 </tileset>
 <layer id="1" name="Tile Layer 1" width="30" height="50">
  <data encoding="csv">
0,0,0,0,0,0,0,0,0,0,0,0,0,0,0,0,0,0,0,0,0,0,0,0,0,0,0,0,0,0,
0,0,0,0,0,0,0,0,0,0,0,0,0,0,0,0,0,0,0,0,0,0,0,0,0,0,0,0,0,0,
0,0,0,0,0,0,0,0,0,0,0,0,0,0,0,0,0,0,0,0,0,0,0,0,0,0,0,0,0,0,
0,0,0,0,0,0,0,0,0,0,0,0,0,0,0,0,0,0,0,0,0,0,0,0,0,0,0,0,0,0,
0,0,0,0,0,0,0,0,0,0,0,0,0,0,0,0,0,0,0,0,0,0,0,0,0,0,0,0,0,0,
0,0,0,0,0,0,0,0,0,0,0,0,0,0,0,0,0,0,0,0,0,0,0,0,0,0,0,0,0,0,
0,0,0,0,0,0,0,0,0,0,0,0,0,0,0,0,0,0,0,0,0,0,0,0,0,0,0,0,0,0,
0,0,0,0,0,0,0,0,0,0,0,0,0,0,0,0,0,0,0,0,0,0,0,0,0,0,0,0,0,0,
0,0,0,0,0,0,0,0,0,0,0,0,0,0,0,0,0,0,0,0,0,0,0,0,0,0,0,0,0,0,
0,0,0,0,0,0,0,0,0,0,0,0,0,0,0,0,0,0,0,0,0,0,0,0,0,0,0,0,0,0,
0,0,0,0,0,0,0,0,0,0,0,0,0,0,0,0,0,0,0,0,0,0,0,0,0,0,0,0,0,0,
0,0,0,0,0,0,0,0,0,0,0,0,0,0,0,0,0,0,0,0,0,0,0,0,0,0,0,0,0,0,
0,0,0,0,0,0,0,0,0,0,0,0,0,0,0,0,0,0,0,0,0,0,0,0,0,0,0,0,0,0,
0,0,0,0,0,0,0,0,0,0,0,0,0,0,0,0,0,0,0,0,0,0,0,0,0,0,0,0,0,0,
0,0,0,0,0,0,0,0,0,0,0,0,0,0,0,0,0,0,0,0,0,0,0,0,0,0,0,0,0,0,
0,0,0,0,0,0,0,0,0,0,0,0,0,0,0,0,0,0,0,0,0,0,0,0,0,0,0,0,0,0,
0,0,0,0,0,0,0,0,0,0,0,0,0,0,0,0,0,0,0,0,0,0,0,0,0,0,0,0,0,0,
0,0,0,0,0,0,0,0,0,0,0,0,0,0,0,0,0,0,0,0,0,0,0,0,0,0,0,0,0,0,
0,0,0,0,0,0,0,0,0,0,0,0,0,0,0,0,0,0,0,0,0,0,0,0,0,0,0,0,0,0,
0,0,0,0,0,0,0,0,0,0,0,0,0,0,0,0,0,0,0,0,0,0,0,0,0,0,0,0,0,0,
0,0,0,0,0,0,0,0,0,0,0,0,0,0,0,0,0,0,0,0,0,0,0,0,0,0,0,0,0,0,
0,0,0,0,0,0,0,0,0,0,0,0,0,0,0,0,0,0,0,0,0,0,0,0,0,0,0,0,0,0,
0,0,0,0,0,0,0,0,0,0,0,0,0,0,0,0,0,0,0,0,0,0,0,0,0,0,0,0,0,0,
0,0,0,0,0,0,0,0,0,0,0,0,0,0,0,0,0,0,0,0,0,0,0,0,0,0,0,0,0,0,
0,0,0,0,0,0,0,0,0,0,0,0,0,0,0,0,0,0,0,0,0,0,0,0,0,0,0,0,0,0,
0,0,0,0,0,0,0,0,0,0,0,0,0,0,0,0,0,0,0,0,0,0,0,0,0,0,0,0,0,0,
0,0,0,0,0,0,0,0,0,0,0,0,0,0,0,0,0,0,0,0,0,0,0,0,0,0,0,0,0,0,
0,0,0,0,0,0,0,0,0,0,0,0,0,0,0,0,0,0,0,0,0,0,0,0,0,0,0,0,0,0,
0,0,0,0,0,0,0,0,0,0,0,0,0,0,0,0,0,0,0,0,0,0,0,0,0,0,0,0,0,0,
0,0,0,0,0,0,0,0,0,0,0,0,0,0,0,0,0,0,0,0,0,0,0,0,0,0,0,0,0,0,
0,0,0,0,0,0,0,0,0,0,0,0,0,0,0,0,0,0,0,0,0,0,0,0,0,0,0,0,0,0,
0,0,0,0,0,0,0,0,0,0,0,0,0,0,0,0,0,0,0,0,0,0,0,0,0,0,0,0,0,0,
0,0,0,0,0,0,0,0,0,0,0,0,0,0,0,0,0,0,0,0,0,0,0,0,0,0,0,0,0,0,
0,0,0,0,0,0,0,0,0,0,0,0,0,0,0,0,0,0,0,0,0,0,0,0,0,0,0,0,0,0,
0,0,0,0,0,0,0,0,0,0,0,0,0,0,0,0,0,0,0,0,0,0,0,0,0,0,0,0,0,0,
0,0,0,0,0,0,0,0,0,0,0,0,0,0,0,0,0,0,0,0,0,0,0,0,0,0,0,0,0,0,
0,0,0,0,0,0,0,0,0,0,0,0,0,0,0,0,0,0,0,0,0,0,0,0,0,0,0,0,0,0,
0,0,0,0,0,0,0,0,0,0,0,0,0,0,0,0,0,0,0,0,0,0,0,0,0,0,0,0,0,0,
0,0,0,0,0,0,0,0,0,0,0,0,0,0,0,0,0,0,0,0,0,0,0,0,0,0,0,0,0,0,
0,0,0,0,0,0,0,0,0,0,0,0,0,0,0,0,0,0,0,0,0,0,0,0,0,0,0,0,0,0,
0,0,0,0,0,0,0,0,0,0,0,0,0,0,0,0,0,0,0,0,0,0,0,0,0,0,0,0,0,0,
0,0,0,0,0,0,0,0,0,0,0,0,0,0,0,0,0,0,0,0,0,0,0,0,0,0,0,0,0,0,
0,0,0,0,0,0,0,0,0,0,0,0,0,0,0,0,0,0,0,0,0,0,0,0,0,0,0,0,0,0,
0,0,0,0,0,0,0,0,0,0,0,0,0,0,0,0,0,0,0,0,0,0,0,0,0,0,0,0,0,0,
0,0,0,0,0,0,0,0,0,0,0,0,0,0,0,0,0,0,0,0,0,0,0,0,0,0,0,0,0,0,
0,0,0,0,0,0,0,0,0,0,0,0,0,0,0,0,0,0,0,0,0,0,0,0,0,0,0,0,0,0,
0,0,0,0,0,0,0,0,0,0,0,0,0,0,0,0,0,0,0,0,0,0,0,0,0,0,0,0,0,0,
0,0,0,0,0,0,0,0,0,0,0,0,0,0,0,0,0,0,0,0,0,0,0,0,0,0,0,0,0,0,
0,0,0,0,0,0,0,0,0,0,0,0,0,0,0,0,0,0,0,0,0,0,0,0,0,0,0,0,0,0,
0,0,0,0,0,0,0,0,0,0,0,0,0,0,0,0,0,0,0,0,0,0,0,0,0,0,0,0,0,0
</data>
 </layer>
 <layer id="3" name="path_layer" width="30" height="50">
  <data encoding="csv">
27,27,27,27,27,27,27,27,27,27,27,27,27,27,27,27,27,27,27,27,27,27,27,27,27,27,27,27,27,27,
27,27,27,27,27,27,27,27,27,27,27,27,27,27,27,27,27,27,27,27,27,27,27,27,27,27,27,27,27,27,
27,27,27,27,27,27,27,27,27,27,27,27,27,27,27,27,27,27,27,27,27,27,27,27,27,27,27,27,27,27,
27,27,27,27,27,27,27,27,27,38,29,29,29,29,29,29,29,39,27,27,27,27,27,27,27,27,27,27,27,27,
27,27,27,27,27,27,27,27,27,31,2,2,2,2,2,2,2,30,27,27,27,27,27,27,27,27,27,27,27,27,
27,27,27,27,27,27,27,27,27,31,2,2,2,2,2,2,2,30,27,27,27,27,27,27,27,27,27,27,27,27,
27,27,27,27,27,27,27,27,27,31,2,2,2,2,2,2,2,30,27,27,27,27,27,27,27,27,27,27,27,27,
27,27,27,27,27,27,27,27,27,31,2,2,2,2,2,2,2,30,27,27,27,27,27,27,27,27,27,27,27,27,
27,27,27,27,27,27,27,27,27,31,2,2,2,2,2,2,2,30,27,27,27,27,27,27,27,27,27,27,27,27,
27,27,27,27,27,27,27,27,27,31,2,2,2,2,2,2,2,30,27,27,27,27,27,27,27,27,27,27,27,27,
27,27,27,27,27,27,27,27,27,37,28,28,34,2,32,28,28,36,27,27,27,27,27,27,27,27,27,27,27,27,
27,27,27,27,27,27,27,27,27,27,27,27,31,2,30,27,27,27,27,27,27,27,27,27,27,27,27,27,27,27,
27,27,27,27,27,27,27,27,27,27,27,27,31,2,30,27,27,27,27,27,27,27,27,27,27,27,27,27,27,27,
27,27,27,27,27,27,27,27,27,27,27,27,31,2,30,27,27,27,27,27,27,27,27,27,27,27,27,27,27,27,
27,27,27,27,27,27,27,27,27,27,38,29,35,2,33,29,39,27,27,27,27,27,27,27,27,27,27,27,27,27,
27,27,27,27,27,27,27,27,27,27,31,4,2,2,2,6,30,27,27,27,27,27,27,27,27,27,27,27,27,27,
27,27,27,27,27,27,27,27,27,27,31,7,2,2,2,8,30,27,27,27,27,27,27,27,27,27,27,27,27,27,
27,27,27,27,27,27,27,27,27,27,31,7,2,2,2,8,30,27,27,27,27,27,27,27,27,27,27,27,27,27,
27,27,27,27,27,27,27,27,27,27,31,7,2,2,2,8,30,27,27,27,27,27,27,27,27,27,27,27,27,27,
27,27,27,27,27,27,27,27,27,27,31,7,2,2,2,8,30,27,27,27,27,27,27,27,27,27,27,27,27,27,
27,27,27,27,27,27,27,27,27,27,31,7,2,2,2,8,30,27,27,27,27,27,27,27,27,27,27,27,27,27,
27,27,27,27,27,27,27,27,27,27,31,7,2,2,2,8,30,27,27,27,27,27,27,27,27,27,27,27,27,27,
27,27,27,27,27,27,27,27,27,27,31,7,2,2,2,8,30,27,27,27,27,27,27,27,27,27,27,27,27,27,
27,27,27,27,27,27,27,27,27,27,31,7,2,2,2,8,30,27,27,27,27,27,27,27,27,27,27,27,27,27,
27,38,29,29,29,29,29,29,29,29,35,7,2,2,2,8,33,29,29,29,29,29,29,29,29,39,27,27,27,27,
27,31,7,2,2,2,2,2,2,2,2,2,2,2,2,2,2,2,2,2,2,2,2,2,8,30,27,27,27,27,
27,31,7,2,2,2,2,2,2,2,2,2,2,2,2,2,2,2,2,2,2,2,2,2,8,30,27,27,27,27,
27,31,7,2,2,2,2,2,2,2,2,2,2,2,2,2,2,2,2,2,2,2,2,2,8,30,27,27,27,27,
27,31,7,2,2,2,2,2,2,2,2,2,2,2,2,2,2,2,2,2,2,2,2,2,8,30,27,27,27,27,
27,31,7,2,2,2,2,2,2,2,2,2,2,2,2,2,2,2,2,2,2,2,2,2,8,30,27,27,27,27,
27,31,3,1,1,1,1,1,1,1,1,1,2,2,2,1,1,1,1,1,1,1,1,1,1,30,27,27,27,27,
27,37,28,28,28,28,28,28,28,28,28,34,7,2,8,32,28,28,28,28,28,28,28,28,28,36,27,27,27,27,
27,27,27,27,27,27,27,27,27,27,27,31,7,2,8,30,27,27,27,27,27,27,27,27,27,27,27,27,27,27,
27,27,27,27,27,27,27,27,27,27,27,31,7,2,8,30,27,27,27,27,27,27,27,27,27,27,27,27,27,27,
27,27,27,27,27,27,27,27,27,27,27,31,7,2,8,30,27,27,27,27,27,27,27,27,27,27,27,27,27,27,
27,27,27,27,27,27,27,27,27,27,27,31,7,2,8,30,27,27,27,27,27,27,27,27,27,27,27,27,27,27,
27,27,27,27,27,27,27,27,27,27,27,31,7,2,8,30,27,27,27,27,27,27,27,27,27,27,27,27,27,27,
27,27,27,27,27,27,27,27,27,27,27,31,7,2,8,30,27,27,27,27,27,27,27,27,27,27,27,27,27,27,
27,27,27,27,27,27,27,27,27,27,27,31,7,2,8,30,27,27,27,27,27,27,27,27,27,27,27,27,27,27,
27,27,27,27,27,27,27,27,27,27,27,31,7,2,8,30,27,27,27,27,27,27,27,27,27,27,27,27,27,27,
27,27,27,27,27,27,27,27,27,27,27,31,7,2,8,30,27,27,27,27,27,27,27,27,27,27,27,27,27,27,
27,27,27,27,27,27,27,27,27,27,27,31,7,2,8,30,27,27,27,27,27,27,27,27,27,27,27,27,27,27,
27,27,27,27,27,27,27,27,27,27,27,31,7,2,8,30,27,27,27,27,27,27,27,27,27,27,27,27,27,27,
27,27,27,27,27,27,27,27,27,27,27,31,7,2,8,30,27,27,27,27,27,27,27,27,27,27,27,27,27,27,
27,27,27,27,27,27,27,27,27,27,27,31,7,2,8,30,27,27,27,27,27,27,27,27,27,27,27,27,27,27,
27,27,27,27,27,27,27,27,27,27,27,31,7,2,8,30,27,27,27,27,27,27,27,27,27,27,27,27,27,27,
27,27,27,27,27,27,27,27,27,27,27,31,7,2,8,30,27,27,27,27,27,27,27,27,27,27,27,27,27,27,
27,27,27,27,27,27,27,27,27,27,27,31,7,2,8,30,27,27,27,27,27,27,27,27,27,27,27,27,27,27,
27,27,27,27,27,27,27,27,27,27,0,0,0,0,0,0,0,27,27,27,27,27,27,27,27,27,27,27,27,27,
27,27,27,27,27,27,27,27,27,27,0,0,0,0,0,0,0,27,27,27,27,27,27,27,27,27,27,27,27,27
</data>
 </layer>
</map>
